arkscan/icons/instantexchangers.svg

<svg viewBox="0 0 20 20" fill="none" xmlns="http://www.w3.org/2000/svg">
<path d="M11.154 0H19.6155L8.8463 20H0.384766L11.154 0ZM15.3848 10L18.8463 16.1538H11.9232L15.3848 10ZM6.53861 6.15385L3.07707 0H10.0002L6.53861 6.15385Z" fill="#637282"/>
<path d="M15.7704 10.7692L18.8474 16.1538H12.6935L15.7704 10.7692ZM6.15505 5.38462L3.07812 0H9.23197L6.15505 5.38462Z" fill="#B01E20"/>
</svg>

<svg viewBox="0 0 20 21" fill="none" xmlns="http://www.w3.org/2000/svg"><g clip-path="url(#a)"><path d="M11.154 0h8.462L8.846 20H.385L11.154 0Zm4.23 10 3.462 6.154h-6.923L15.385 10ZM6.54 6.154 3.077 0H10L6.54 6.154Z" fill="#637282"/><path d="m15.77 10.77 3.077 5.384h-6.154l3.077-5.385ZM6.155 5.384 3.078 0h6.154L6.155 5.385Z" fill="#B01E20"/></g><defs><clipPath id="a"><path fill="#fff" transform="translate(0 .008)" d="M0 0h20v20H0z"/></clipPath></defs></svg>
